32x32/apps/info.mumble.Mumble.svg

<svg xmlns="http://www.w3.org/2000/svg" width="32" height="32" version="1">
 <path style="opacity:0.2" d="M 13.5,2 C 13.5,2 11.686874,1.9793 9.829103,2.908205 7.97133,3.8370876 6,5.9999974 6,9.5 V 20 H 8.9995515 V 9.5 c 0,-2.4999976 1.0286705,-3.3370876 2.1708975,-3.908205 C 11.467802,5.4431224 11.718323,5.4100624 12,5.3266624 V 10.5 c 0,2.000003 1.22133,3.412913 2.329103,3.966794 C 15.436874,15.020686 16.5,15 16.5,15 c 0,0 1.063126,0.0207 2.170897,-0.533206 C 19.77867,13.912913 21,12.500003 21,10.5 V 5.3266624 c 0.281677,0.0834 0.53175,0.11646 0.829103,0.2651326 C 22.97133,6.1629124 24,7.0000024 24,9.5 V 20 h 3 V 9.5 C 27,5.9999974 25.02867,3.8370876 23.170897,2.908205 21.313126,1.979315 19.5,2 19.5,2 H 18 v 8.5 c 0,0.999997 -0.27867,1.087087 -0.670897,1.283204 C 16.936874,11.979314 16.5,12 16.5,12 16.5,12 16.063124,11.9793 15.670897,11.783204 15.27867,11.587087 15,11.499997 15,10.5 V 2 Z"/>
 <path style="opacity:0.2" d="M 9,16.021484 C 5.0921706,16.286708 2,19.524887 2,23.5 c 0,3.975113 3.0921706,7.213292 7,7.478516 z m 15,0 V 30 H 20.492188 C 20.80699,29.581836 21,29.066048 21,28.5 v -1 C 21,26.115 19.885,25 18.5,25 h -4 C 13.115,25 12,26.115 12,27.5 v 1 c 0,1.385 1.115,2.5 2.5,2.5 H 17 18.5 24 v -0.02148 C 27.907829,30.713292 31,27.475113 31,23.5 31,19.524887 27.907829,16.286708 24,16.021484 Z"/>
 <path style="fill:#195bbd" d="M 13.5,1 C 13.5,1 11.686874,0.9793 9.829103,1.908205 7.97133,2.8370876 6,4.9999974 6,8.5 V 19 H 8.9995515 V 8.5 c 0,-2.4999976 1.0286705,-3.3370876 2.1708975,-3.908205 C 11.467802,4.4431224 11.718323,4.4100624 12,4.3266624 V 9.5 c 0,2.000003 1.22133,3.412913 2.329103,3.966794 C 15.436874,14.020686 16.5,14 16.5,14 c 0,0 1.063126,0.0207 2.170897,-0.533206 C 19.77867,12.912913 21,11.500003 21,9.5 V 4.3266624 c 0.281677,0.0834 0.53175,0.11646 0.829103,0.2651326 C 22.97133,5.1629124 24,6.0000024 24,8.5 V 19 h 3 V 8.5 C 27,4.9999974 25.02867,2.8370876 23.170897,1.908205 21.313126,0.979315 19.5,1 19.5,1 H 18 v 8.5 c 0,0.999997 -0.27867,1.087087 -0.670897,1.283204 C 16.936874,10.979314 16.5,11 16.5,11 16.5,11 16.063124,10.9793 15.670897,10.783204 15.27867,10.587087 15,10.499997 15,9.5 V 1 Z"/>
 <path style="fill:#229cfe" d="M 9 15.021484 C 5.0921706 15.286708 2 18.524887 2 22.5 C 2 26.475113 5.0921706 29.713292 9 29.978516 L 9 15.021484 z M 24 15.021484 L 24 29 L 20.492188 29 C 20.80699 28.581836 21 28.066048 21 27.5 L 21 26.5 C 21 25.115 19.885 24 18.5 24 L 14.5 24 C 13.115 24 12 25.115 12 26.5 L 12 27.5 C 12 28.885 13.115 30 14.5 30 L 17 30 L 18.5 30 L 24 30 L 24 29.978516 C 27.907829 29.713292 31 26.475113 31 22.5 C 31 18.524887 27.907829 15.286708 24 15.021484 z"/>
 <path style="opacity:0.1;fill:#f4f4f7" d="M 13.5 1 C 13.5 1 11.687849 0.97929812 9.8300781 1.9082031 C 7.9723051 2.8370857 6 4.9999974 6 8.5 L 6 9.5 C 6 5.9999974 7.9723051 3.8370857 9.8300781 2.9082031 C 11.687849 1.9792981 13.5 2 13.5 2 L 15 2 L 15 1 L 13.5 1 z M 18 1 L 18 2 L 19.5 2 C 19.5 2 21.312151 1.9793131 23.169922 2.9082031 C 25.027695 3.8370857 27 5.9999974 27 9.5 L 27 8.5 C 27 4.9999974 25.027695 2.8370857 23.169922 1.9082031 C 21.312151 0.97931313 19.5 1 19.5 1 L 18 1 z M 15 9.5 L 15 10.5 C 15 11.499997 15.277695 11.587086 15.669922 11.783203 C 16.062149 11.979299 16.5 12 16.5 12 C 16.5 12 16.937849 11.979313 17.330078 11.783203 C 17.722305 11.587086 18 11.499997 18 10.5 L 18 9.5 C 18 10.499997 17.722305 10.587086 17.330078 10.783203 C 16.937849 10.979313 16.5 11 16.5 11 C 16.5 11 16.062149 10.979299 15.669922 10.783203 C 15.277695 10.587086 15 10.499997 15 9.5 z"/>
 <path style="opacity:0.2;fill:#f4f4f7" d="M 9 15.021484 C 5.0921706 15.286708 2 18.524887 2 22.5 C 2 22.668698 2.0124733 22.834127 2.0234375 23 C 2.2708278 19.257336 5.2580132 16.275453 9 16.021484 L 9 15.021484 z M 24 15.021484 L 24 16.021484 C 27.741986 16.275453 30.729172 19.257336 30.976562 23 C 30.987527 22.834127 31 22.668698 31 22.5 C 31 18.524887 27.907829 15.286708 24 15.021484 z M 14.5 24 C 13.115 24 12 25.115 12 26.5 L 12 27.5 C 12 26.115 13.115 25 14.5 25 L 18.5 25 C 19.885 25 21 26.115 21 27.5 L 21 26.5 C 21 25.115 19.885 24 18.5 24 L 14.5 24 z M 20.943359 29 C 20.866154 29.369117 20.711017 29.70932 20.492188 30 L 24 30 L 24 29.978516 L 24 29 L 20.943359 29 z"/>
</svg>

<svg xmlns="http://www.w3.org/2000/svg" width="32" height="32" version="1"><path style="opacity:.2" d="M13.5 2s-1.813-.02-3.67.908C7.97 3.838 6 6 6 9.5V20h3V9.5c0-2.5 1.028-3.337 2.17-3.908.298-.149.548-.182.83-.265V10.5c0 2 1.221 3.413 2.33 3.967 1.107.554 2.17.533 2.17.533s1.063.02 2.17-.533C19.78 13.913 21 12.5 21 10.5V5.327c.282.083.532.116.83.265C22.97 6.162 24 7 24 9.5V20h3V9.5c0-3.5-1.971-5.663-3.83-6.592C21.314 1.98 19.5 2 19.5 2H18v8.5c0 1-.279 1.087-.67 1.283-.393.196-.83.217-.83.217s-.437-.02-.83-.217C15.28 11.587 15 11.5 15 10.5V2z"/><path style="opacity:.2" d="M9 16.021c-3.908.266-7 3.504-7 7.479s3.092 7.213 7 7.479zm15 0V30h-3.508c.315-.418.508-.934.508-1.5v-1c0-1.385-1.115-2.5-2.5-2.5h-4a2.495 2.495 0 0 0-2.5 2.5v1c0 1.385 1.115 2.5 2.5 2.5H24v-.021c3.908-.266 7-3.504 7-7.479s-3.092-7.213-7-7.479z"/><path style="fill:#195bbd" d="M13.5 1s-1.813-.02-3.67.908C7.97 2.838 6 5 6 8.5V19h3V8.5c0-2.5 1.028-3.337 2.17-3.908.298-.149.548-.182.83-.265V9.5c0 2 1.221 3.413 2.33 3.967 1.107.554 2.17.533 2.17.533s1.063.02 2.17-.533C19.78 12.913 21 11.5 21 9.5V4.327c.282.083.532.116.83.265C22.97 5.162 24 6 24 8.5V19h3V8.5c0-3.5-1.971-5.663-3.83-6.592C21.314.98 19.5 1 19.5 1H18v8.5c0 1-.279 1.087-.67 1.283-.393.196-.83.217-.83.217s-.437-.02-.83-.217C15.28 10.587 15 10.5 15 9.5V1z"/><path style="fill:#229cfe" d="M9 15.021c-3.908.266-7 3.504-7 7.479s3.092 7.213 7 7.479V15.02zm15 0V29h-3.508c.315-.418.508-.934.508-1.5v-1c0-1.385-1.115-2.5-2.5-2.5h-4a2.495 2.495 0 0 0-2.5 2.5v1c0 1.385 1.115 2.5 2.5 2.5H24v-.021c3.908-.266 7-3.504 7-7.479s-3.092-7.213-7-7.479z"/><path style="opacity:.1;fill:#f4f4f7" d="M13.5 1s-1.812-.02-3.67.908C7.972 2.838 6 5 6 8.5v1C6 6 7.972 3.837 9.83 2.908 11.688 1.98 13.5 2 13.5 2H15V1h-1.5zM18 1v1h1.5s1.812-.02 3.67.908C25.028 3.838 27 6 27 9.5v-1c0-3.5-1.972-5.663-3.83-6.592C21.312.98 19.5 1 19.5 1H18zm-3 8.5v1c0 1 .278 1.087.67 1.283.392.196.83.217.83.217s.438-.02.83-.217c.392-.196.67-.283.67-1.283v-1c0 1-.278 1.087-.67 1.283-.392.196-.83.217-.83.217s-.438-.02-.83-.217C15.278 10.587 15 10.5 15 9.5z"/><path style="opacity:.2;fill:#f4f4f7" d="M9 15.021c-3.908.266-7 3.504-7 7.479 0 .169.012.334.023.5A7.499 7.499 0 0 1 9 16.021v-1zm15 0v1A7.499 7.499 0 0 1 30.977 23c.01-.166.023-.331.023-.5 0-3.975-3.092-7.213-7-7.479zM14.5 24a2.495 2.495 0 0 0-2.5 2.5v1c0-1.385 1.115-2.5 2.5-2.5h4c1.385 0 2.5 1.115 2.5 2.5v-1c0-1.385-1.115-2.5-2.5-2.5h-4zm6.443 5c-.077.37-.232.71-.45 1H24v-1h-3.057z"/></svg>
